icons/svg/mouse.svg

﻿<?xml version="1.0" encoding="utf-8"?>
<!DOCTYPE svg PUBLIC "-//W3C//DTD SVG 1.1//EN" "http://www.w3.org/Graphics/SVG/1.1/DTD/svg11.dtd">
<svg xmlns="http://www.w3.org/2000/svg" xmlns:xlink="http://www.w3.org/1999/xlink" version="1.1" baseProfile="full" width="24" height="24" viewBox="0 0 24.00 24.00" enable-background="new 0 0 24.00 24.00" xml:space="preserve">
	<path fill="#000000" fill-opacity="1" stroke-width="0.2" stroke-linejoin="round" d="M 10.9994,1.06737C 7.05438,1.56035 3.99939,4.91936 3.99939,8.99837L 10.9994,8.99837M 3.99939,14.9984C 3.99939,19.4164 7.58139,22.9984 11.9994,22.9984C 16.4174,22.9984 19.9994,19.4164 19.9994,14.9984L 19.9994,10.9984L 3.99939,10.9984M 12.9994,1.06737L 12.9994,8.99837L 19.9994,8.99837C 19.9994,4.91936 16.9444,1.56035 12.9994,1.06737 Z "/>
</svg>

<svg xmlns="http://www.w3.org/2000/svg" version="1.1" baseProfile="full" width="24" height="24" viewBox="0 0 24.00 24.00" xml:space="preserve"><path fill="#000" fill-opacity="1" stroke-width=".2" stroke-linejoin="round" d="M11 1.067c-3.946.493-7 3.852-7 7.93h7m-7 6c0 4.42 3.58 8 8 8 4.417 0 8-3.58 8-8v-4H4m9-9.93v7.93h7c0-4.078-3.056-7.437-7-7.93z"/></svg>
